public/icons/copy.svg

<svg viewBox="0 0 32 32" fill="none" xmlns="http://www.w3.org/2000/svg">
  <path d="M28 0H12C9.791 0 8 1.791 8 4V20C8 22.209 9.791 24 12 24H28C30.209 24 32 22.209 32 20V4C32 1.791 30.209 0 28 0ZM6 21V8H4C1.791 8 0 9.791 0 12V28C0 30.209 1.791 32 4 32H20C22.209 32 24 30.209 24 28V26H11C8.791 26 6 23.209 6 21Z" fill="#FFFFFF"/>
</svg>

<?xml version="1.0" encoding="utf-8"?>
<!-- Generator: Adobe Illustrator 21.1.0, SVG Export Plug-In . SVG Version: 6.00 Build 0)  -->
<svg version="1.1" id="Layer_1" xmlns="http://www.w3.org/2000/svg" xmlns:xlink="http://www.w3.org/1999/xlink" x="0px" y="0px"
	 viewBox="0 0 32 32" style="enable-background:new 0 0 32 32;" xml:space="preserve">
<style type="text/css">
	.st0{fill:#00002D;}
</style>
<path class="st0" d="M28,0H12C9.8,0,8,1.8,8,4v16c0,2.2,1.8,4,4,4h16c2.2,0,4-1.8,4-4V4C32,1.8,30.2,0,28,0z M6,21V8H4
	c-2.2,0-4,1.8-4,4v16c0,2.2,1.8,4,4,4h16c2.2,0,4-1.8,4-4v-2H11C8.8,26,6,23.2,6,21z"/>
</svg>
